Simply-Circles-GNOME/Simply-Night-Blue-Circles/scalable/apps/firefox-trunk.svg

<?xml version="1.0" encoding="UTF-8" standalone="no"?>
<svg
   xmlns:dc="http://purl.org/dc/elements/1.1/"
   xmlns:cc="http://creativecommons.org/ns#"
   xmlns:rdf="http://www.w3.org/1999/02/22-rdf-syntax-ns#"
   xmlns:svg="http://www.w3.org/2000/svg"
   xmlns="http://www.w3.org/2000/svg"
   xmlns:sodipodi="http://sodipodi.sourceforge.net/DTD/sodipodi-0.dtd"
   xmlns:inkscape="http://www.inkscape.org/namespaces/inkscape"
   width="48"
   height="48"
   viewBox="0 0 12.7 12.7"
   version="1.1"
   id="svg4"
   sodipodi:docname="firefox-trunk.svg"
   inkscape:version="0.92.5 (2060ec1f9f, 2020-04-08)">
  <defs
     id="defs8">
  <style
     id="current-color-scheme"
     type="text/css">
      .ColorScheme-Highlight {
        color:#1e3f5a;
      }
  </style>
  </defs>
  <path
     class="ColorScheme-Highlight"
     style="fill:currentColor"
     d="M 24 0 A 24 24 0 0 0 0 24 A 24 24 0 0 0 24 48 A 24 24 0 0 0 48 24 A 24 24 0 0 0 24 0 z M 24 3 A 21 21 0 0 1 45 24 A 21 21 0 0 1 24 45 A 21 21 0 0 1 3 24 A 21 21 0 0 1 24 3 z "
     transform="scale(0.26458333)"
     id="path817" />
  <path
     d="m 8.0320002,2.5240001 a 0.063,0.063 0 0 0 -0.036,0.01 c 0.43,0.3900001 0.764,0.8970002 0.9429998,1.4930001 0.2380002,0.7900001 0.2740002,1.6330002 0.084,2.3719999 A 1.857,1.857 0 0 0 7.095,4.843 C 7.7460001,5.148 8.1630001,5.8030001 8.164,6.5230002 8.164,7.487 7.425,8.3050002 6.473,8.393 A 2.602,2.602 0 0 1 5.4349999,8.1280003 l -0.075,-0.04 -0.077,-0.043 L 5.245,8.022 A 2.25,2.25 0 0 1 5.1259999,7.942 L 5.113001,7.9319988 A 2.14,2.14 0 0 1 4.9969999,7.8420002 l -0.018,-0.014999 A 2.03,2.03 0 0 1 4.6640004,7.4850008 l -0.004,-0.005 a 1.644,1.644 0 0 1 -0.072,-0.112 v -0.00101 l -0.005,-0.009 -0.00101,-0.00101 a 1.513,1.513 0 0 1 -0.066,-0.1280001 l -0.00201,-0.003 a 1.379,1.379 0 0 1 -0.048,-0.1220002 C 4.310983,6.6519877 4.3609832,6.4619878 4.782983,6.1809876 c 0.057,-0.037 0.1200002,-0.07 0.1900002,-0.1 0.071,-0.03 0.15,-0.056 0.237,-0.079 a 3.0300001,3.0300001 0 0 1 0.652,-0.082 c 0.3609999,-0.2380001 0.472,-0.366 0.495,-0.455 a 0.158,0.158 0 0 0 0,-0.08 2.98,2.98 0 0 1 -0.9300001,-0.4879999 c -0.1469999,-0.1170001 -0.3159999,-0.286 -0.5420001,-0.438 -0.085,-0.2829999 -0.1489998,-0.6000001 -0.037,-1.194 -0.421,0.1389999 -0.7900001,0.523 -1.0830002,0.8519999 h -0.021 C 3.5639999,3.772 3.598,3.3200001 3.581,2.9100002 a 4.422,4.422 0 0 0 -1.714,3.19 3.3850001,3.3850001 0 0 0 -0.015,0.3139999 c 0,2.456 2.0140001,4.4459999 4.498,4.4459999 2.4840001,0 4.498,-1.9899999 4.498,-4.4459999 A 4.3999999,4.3999999 0 0 0 9.6940002,3.442 c 0.015999,-0.00101 -0.067,-0.065 -0.11,-0.05 A 3.2800002,3.2800002 0 0 1 10.041,4.7960001 l 0.003,0.029 c 0.005,0.054 0.006,0.11 0.008,0.165 a 4.3999999,4.3999999 0 0 0 -1.937,-2.44 c 0.011001,-0.004 -0.04,-0.026 -0.083,-0.025 z"
     id="path4"
     inkscape:connector-curvature="0"
     style="fill:#aa00d4" />
</svg>

<?xml version="1.0" encoding="UTF-8" standalone="no"?>
<svg
   xmlns:dc="http://purl.org/dc/elements/1.1/"
   xmlns:cc="http://creativecommons.org/ns#"
   xmlns:rdf="http://www.w3.org/1999/02/22-rdf-syntax-ns#"
   xmlns:svg="http://www.w3.org/2000/svg"
   xmlns="http://www.w3.org/2000/svg"
   xmlns:sodipodi="http://sodipodi.sourceforge.net/DTD/sodipodi-0.dtd"
   xmlns:inkscape="http://www.inkscape.org/namespaces/inkscape"
   width="48"
   height="48"
   viewBox="0 0 12.7 12.7"
   version="1.1"
   id="svg6"
   sodipodi:docname="firefox-trunk.svg"
   inkscape:version="0.92.4 (5da689c313, 2019-01-14)">
  <metadata
     id="metadata12">
    <rdf:RDF>
      <cc:Work
         rdf:about="">
        <dc:format>image/svg+xml</dc:format>
        <dc:type
           rdf:resource="http://purl.org/dc/dcmitype/StillImage" />
        <dc:title></dc:title>
      </cc:Work>
    </rdf:RDF>
  </metadata>
  <defs
     id="defs10" />
  <sodipodi:namedview
     pagecolor="#ffffff"
     bordercolor="#666666"
     borderopacity="1"
     objecttolerance="10"
     gridtolerance="10"
     guidetolerance="10"
     inkscape:pageopacity="0"
     inkscape:pageshadow="2"
     inkscape:window-width="862"
     inkscape:window-height="480"
     id="namedview8"
     showgrid="false"
     inkscape:zoom="4.9166667"
     inkscape:cx="2.1355932"
     inkscape:cy="24"
     inkscape:window-x="0"
     inkscape:window-y="25"
     inkscape:window-maximized="0"
     inkscape:current-layer="svg6" />
  <path
     d="m 6.344,0.072 a 6.29,6.29 0 0 0 -6.289,6.29 6.29,6.29 0 0 0 6.29,6.29 6.29,6.29 0 0 0 6.29,-6.29 6.29,6.29 0 0 0 -6.291,-6.29 z M 6.326,1.009 A 5.407,5.407 0 0 1 11.734,6.416 5.407,5.407 0 0 1 6.326,11.824 5.407,5.407 0 0 1 0.92,6.416 5.407,5.407 0 0 1 6.326,1.01 Z"
     id="path2"
     inkscape:connector-curvature="0"
     style="fill:#1e3f5a" />
  <path
     d="m 8.032,2.524 a 0.063,0.063 0 0 0 -0.036,0.01 c 0.43,0.39 0.764,0.897 0.943,1.493 0.238,0.79 0.274,1.633 0.084,2.372 A 1.857,1.857 0 0 0 7.095,4.843 c 0.651,0.305 1.068,0.96 1.069,1.68 0,0.964 -0.739,1.782 -1.691,1.87 A 2.602,2.602 0 0 1 5.435,8.128 L 5.36,8.088 5.283,8.045 5.245,8.022 A 2.25,2.25 0 0 1 5.126,7.942 L 5.113,7.932 A 2.14,2.14 0 0 1 4.997,7.842 L 4.979,7.827 A 2.03,2.03 0 0 1 4.664,7.485 L 4.66,7.48 A 1.644,1.644 0 0 1 4.588,7.368 V 7.367 L 4.583,7.358 4.582,7.357 A 1.513,1.513 0 0 1 4.516,7.229 L 4.514,7.226 A 1.379,1.379 0 0 1 4.466,7.104 C 4.311,6.652 4.361,6.462 4.783,6.181 4.84,6.144 4.903,6.111 4.973,6.081 5.044,6.051 5.123,6.025 5.21,6.002 A 3.03,3.03 0 0 1 5.862,5.92 C 6.223,5.682 6.334,5.554 6.357,5.465 a 0.158,0.158 0 0 0 0,-0.08 2.98,2.98 0 0 1 -0.93,-0.488 C 5.28,4.78 5.111,4.611 4.885,4.459 4.8,4.176 4.736,3.859 4.848,3.265 4.427,3.404 4.058,3.788 3.765,4.117 H 3.744 C 3.564,3.772 3.598,3.32 3.581,2.91 A 4.422,4.422 0 0 0 1.867,6.1 3.385,3.385 0 0 0 1.852,6.414 c 0,2.456 2.014,4.446 4.498,4.446 2.484,0 4.498,-1.99 4.498,-4.446 A 4.4,4.4 0 0 0 9.694,3.442 C 9.71,3.441 9.627,3.377 9.584,3.392 a 3.28,3.28 0 0 1 0.457,1.404 l 0.003,0.029 c 0.005,0.054 0.006,0.11 0.008,0.165 A 4.4,4.4 0 0 0 8.115,2.55 C 8.126,2.546 8.075,2.524 8.032,2.525 Z"
     id="path4"
     inkscape:connector-curvature="0"
     style="opacity:0.75;fill:#442178" />
</svg>
